X:1
T:Der Kreuzzug
T:Franz Schubert
T:Karl Gottfried von Leitner
T:Der Kreuzzug
T:Bearbeitung für gemischen Chor (ursprünglich Sololied)
T:CPDL - Creative Commons Attribution Non Commercial 3.0
T:CPDL - Creative Commons Attribution Non Commercial 3.0
C:Franz Schubert
Z:Karl Gottfried von Leitner
Z:CPDL - Creative Commons Attribution Non Commercial 3.0
%%score [ ( 1 2 ) ( 3 4 ) ]
L:1/8
Q:1/4=120
M:4/4
K:E
V:1 treble nm="Sopran\nAlt"
V:2 treble 
V:3 bass nm="Tenor\nBass"
V:4 bass 
V:1
"^Ruhig und fromm" G2 | G3 F E2 E2 | E3 F G2 G2 | A2 A2 G2 G>A | F4 z2 F2 | G3 F E2 E2 | %6
w: Ein|Mü- nich steht in|sei- ner Zell' am|Fens- ter- git- ter *|grau, viel|Rit- ters- leut in|
 E3 F G2 G2 | G2 G2 G2 ^A^B | c6 G2 | A2 A2 A2 A2 | A3 G F2 F2 | G2 B2 A2 G2 | F6 F2 | %13
w: Waf- fen hell, die|rei- ten durch die *|Au. Sie|sin- gen Lie- der|from- mer Art in|schö- nem, erns- ten|Chor, in-|
 G3 A B2 ^B2 | c3 d e2 e2 | d2 d2 (^B2{cB)} ^AB | (c4 =B3) A | G3 A GF Fd | !fermata!e6 F2 | %19
w: mit- ten fliegt, von|Sei- de zart, die|Kreu- zes- fahn' em- *|por, _ die|Kreu- zes- fahn' * em- *|por. Sie|
 F2 F2 F2 F2 | G3 A G2 G2 | G>A A2 A2 c2 | B6 B2 | B2 B2 B2 B2 | =c3 =d ed cB | A2 A2 ^A2 A2 | %26
w: stei- gen an dem|See- ge- stad' das|ho- * he Schiff hin-|an. Es|läuft hin- weg auf|grü- nem Pfad, * ist *|bald nur wie ein|
 B6!pp!"^ganz verklingend" B2 | A2 A2 ^A2 A2 | !fermata!B6 |!mf! G2 | G3 F E2 E2 | E3 F G2 G2 | %32
w: Schwan, ist|bald nur wie ein|Schwan.|Der|Mü- nich steht am|Fens- ter noch, schaut|
 A2 A2 G2 G2 | F6 F2 | G3 F E2 E2 | E3 F G2 G2 | G2 G2 G2 ^A^B | c6 G2 | A2 A2 A2 A2 | A3 G F2 F2 | %40
w: ih- nen nach hin-|aus: "Ich|bin, wie ihr, ein|Pil- ger doch, und|bleib ich gleich zu- *|haus. Des|Le- bens Fahrt durch|Wel- len- trug und|
 G2 B2 A2 G2 | F6 F2 | G3 A B2 ^B2 | c3 d e2 c2 | d2 d2 ^B2 B2 | (c4 B2) A2 | G2 GA GF Fd | e6 |] %48
w: hei- ßen Wüs- ten-|sand, es|ist ja auch ein|Kreu- zes- zug in|das ge- lob- te|Land, _ in|das ge- * lob- * te *|Land."|
V:2
 E2 | E3 B, B,2 B,2 | B,3 B, E2 E2 | F2 F2 E2 E2 | D4 x2 D2 | E3 B, B,2 B,2 | C3 D E2 E2 | %7
 F2 E2 D2 F2 | E6 E2 | E2 E2 E2 E2 | D3 D D2 D2 | E2 E2 E2 C2 | D6 D2 | E3 F G2 F2 | E3 F G2 G2 | %15
 F2 F2 D2 D2 | (E4 F3) F | E2 E2 D2 DF | E6 D2 | D2 D2 D2 D2 | D2 D2 D2 D2 | E2 E2 E2 E2 | F6 F2 | %23
 F2 F2 F2 =G2 | E2 E2 E2 E2 | E2 E2 E2 E2 | D6 D2 | E2 E2 E2 E2 | D6 | E2 | E3 B, B,2 B,2 | %31
 B,3 B, E2 E2 | F2 F2 E2 E2 | D6 D2 | E3 B, B,2 B,2 | C3 D E2 E2 | F2 E2 D2 F2 | E6 E2 | %38
 E2 E2 E2 E2 | D3 D D2 D2 | E2 E2 E2 C2 | D6 D2 | E3 F G2 F2 | E3 F G2 E2 | F2 F2 D2 D2 | %45
 (E4 F2) F2 | E2 E2 D2 DF | E6 |] %48
V:3
 B,2 | B,3 A, G,2 G,2 | G,3 A, B,2 B,2 | B,2 B,2 B,2 B,2 | B,4 z2 B,2 | B,3 A, G,2 G,2 | %6
 G,3 G, G,2 G,2 | G,2 G,2 G,2 G,2 | G,6 C2 | A,2 A,2 A,2 A,2 | F,3 G, A,2 A,2 | G,2 E,2 E,2 E,2 | %12
 B,6 B,2 | B,3 B, B,2 G,2 | G,3 G, G,2 G,2 | A,2 A,2 G,2 G,2 | (G,4 B,3) B, | B,2 B,2 A,2 A,2 | %18
 G,6 B,2 | B,2 B,2 B,2 B,2 | G,2 G,2 G,2 ^B,2 | C2 A,2 A,2 A,2 | (F,2 B,4) B,2 | B,2 B,2 B,2 =G,2 | %24
 =G,2 G,2 G,2 G,2 | E,2 E,2 F,2 F,2 | F,6!pp! F,2 | E,2 E,2 F,2 F,2 | F,6 |!mf! B,2 | %30
 B,3 A, G,2 G,2 | G,3 A, B,2 B,2 | B,2 B,2 B,2 B,2 | B,6 B,2 | B,3 A, G,2 G,2 | G,3 G, G,2 G,2 | %36
 G,2 G,2 G,2 G,2 | G,6 C2 | A,2 A,2 A,2 A,2 | F,3 G, A,2 A,2 | G,2 E,2 E,2 E,2 | B,6 B,2 | %42
 B,3 B, B,2 G,2 | G,3 G, G,2 G,2 | A,2 A,2 G,2 G,2 | (G,4 B,2) B,2 | B,2 B,2 A,2 A,2 | G,6 |] %48
V:4
 E,2 | E,3 E, E,2 E,2 | E,3 E, E,2 E,2 | D,2 D,2 E,2 E,2 | B,,4 x2 B,,2 | E,3 E, E,2 E,2 | %6
 C,3 C, C,2 C,2 | D,2 C,2 ^B,,2 G,,2 | C,6 C,2 | C,2 C,2 ^B,,2 B,,2 | B,,3 B,, B,,2 B,,2 | %11
 B,,2 G,,2 A,,2 ^A,,2 | B,,6 B,,2 | E,3 E, E,2 D,2 | C,3 C, C,2 C,2 | F,2 F,2 G,2 D,2 | %16
 (C,4 D,3) D, | E,2 E,2 B,,2 B,,2 | !fermata!E,6 B,,2 | B,,2 B,,2 B,,2 B,,2 | %20
 ^B,,2 B,,2 B,,2 G,,2 | C,2 C,2 C,2 C,2 | D,6 D,2 | D,2 D,2 D,2 E,2 | =C,2 C,2 C,2 C,2 | %25
 =C,2 C,2 C,2 C,2 | B,,6 B,,2 | =C,2 C,2 C,2 C,2 | !fermata!B,,6 | E,2 | E,3 E, E,2 E,2 | %31
 E,3 E, E,2 E,2 | D,2 D,2 E,2 E,2 | B,,6 B,,2 | E,3 E, E,2 E,2 | C,3 C, C,2 C,2 | %36
 D,2 C,2 ^B,,2 G,,2 | C,6 C,2 | C,2 C,2 =C,2 C,2 | B,,3 B,, B,,2 B,,2 | B,,2 G,,2 A,,2 ^A,,2 | %41
 B,,6 B,,2 | E,3 E, E,2 D,2 | C,3 C, C,2 C,2 | F,2 F,2 G,2 G,,2 | (C,4 D,2) D,2 | %46
 E,2 E,2 B,,2 B,,2 | E,6 |] %48

